X: 10693
T: BROSE AND BUTTER
O: Scottish Jig.
%R: slip-jig
B: W. Hamilton "Universal Tune-Book" Vol. 1 Glasgow 1844 p.69 #3
S: http://imslp.org/wiki/Hamilton's_Universal_Tune-Book_(Various)
Z: 2016 John Chambers <jc:trillian.mit.edu>
M: 9/8
L: 1/8
K: C	% and A Dorian
% - - - - - - - - - - - - - - - - - - - - - - - - -
|:\
cde AcA AcA | cde AcA dBG |\
cde AcA ABc | B2G Gge dBG ::\
cde ege ege | cde ege dBG |\
cde ege e^fg | ^f2d ege dBG :|
% - - - - - - - - - - - - - - - - - - - - - - - - -

%%sep 1 1 500
%%sep 1 1 500

